X: 2030
T: Music For A Found Harmonium
C:Penguin Cafe Orchestra
B: steve tunes
M:4/4
R: Reel
Q: 1/4=160
K:D
V:1 
|:"D" FDGD FDDD|"D" FDGD FDDD|"D"FDGD FDDD|"A"EDCD "D"FDDD:|
|:"A"EDCD EDCD|"D"FD=CD FD=CD|"G"GDDD CDEG|"D"FDDD D4:|
[|:"F"=c=FE=F G=FE=F|"F"=c=FE=F "A"E3E|"F"=c=FE=F G=FE=F|"F"=c=FE=F "A"E4:|
"Bb"_B=FD=F G=FD=F|_B=FD=F G=FD=F|"Edim"_BGE=F GE3|_BGE=F GE3|
"A"cGEG CGEG|cGEG CGEG|cGEG CGEG|cGEG cEeE||
% abcbook-tune_id 62a420d1bd0d56b22669e96f


% abcbook-boost 0
% abcbook-tablature 
% abcbook-transpose 
% abcbook-lastupdated 1654959066203
% abcbook-soundfonts 
% abcbook-repeats 3
% Rhythm Reel
% Titles One title
% Transcriptions Only 1 transcription
% Mode major
% Key C
% Key D
% Time_signature 4/4
% Has_accompaniment_chords Has chords

